X: 34142
T: Reel Du Tricentenaire
R: reel
M: 4/4
K: Dmajor
D2 FA BAFA|dcdf edAF|G2 BG F2AF|EDEF GFED|
D2 FA BAFA|dcdf edAF|G2 BG FAdf|1 ecAc d4:|2 edcA d3a||
|:fafd Adfd|Bdef g3f|e2 ce Acec|defg a3g|
fafd Adfd|Bdef g3f|e2 ce agec|1 dfec d3g:|2 dfec dBAF||

